icons/midnadark/actions/24/filename-discnumber-amarok.svg

<?xml version="1.0" encoding="UTF-8" standalone="no"?>
<!-- Created with Inkscape (http://www.inkscape.org/) -->

<svg
   xmlns:dc="http://purl.org/dc/elements/1.1/"
   xmlns:cc="http://creativecommons.org/ns#"
   xmlns:rdf="http://www.w3.org/1999/02/22-rdf-syntax-ns#"
   xmlns:svg="http://www.w3.org/2000/svg"
   xmlns="http://www.w3.org/2000/svg"
   xmlns:sodipodi="http://sodipodi.sourceforge.net/DTD/sodipodi-0.dtd"
   xmlns:inkscape="http://www.inkscape.org/namespaces/inkscape"
   width="22"
   height="22"
   id="svg3869"
   version="1.1"
   inkscape:version="0.91 r13725"
   sodipodi:docname="filename-discnumber-amarok.svg">
  <defs
     id="defs3871">
    <linearGradient
       id="linearGradient4290-48">
      <stop
         style="stop-color:#a5a5a5;stop-opacity:1;"
         offset="0"
         id="stop4292-0" />
      <stop
         style="stop-color:#f5f2f5;stop-opacity:1;"
         offset="1"
         id="stop4294-0" />
    </linearGradient>
    <inkscape:perspective
       sodipodi:type="inkscape:persp3d"
       inkscape:vp_x="0 : 12 : 1"
       inkscape:vp_y="0 : 1000 : 0"
       inkscape:vp_z="24 : 12 : 1"
       inkscape:persp3d-origin="12 : 8 : 1"
       id="perspective4146-9" />
    <inkscape:perspective
       sodipodi:type="inkscape:persp3d"
       inkscape:vp_x="0 : 12 : 1"
       inkscape:vp_y="0 : 1000 : 0"
       inkscape:vp_z="24 : 12 : 1"
       inkscape:persp3d-origin="12 : 8 : 1"
       id="perspective4146" />
    <inkscape:perspective
       id="perspective4146-9-1"
       inkscape:persp3d-origin="12 : 8 : 1"
       inkscape:vp_z="24 : 12 : 1"
       inkscape:vp_y="0 : 1000 : 0"
       inkscape:vp_x="0 : 12 : 1"
       sodipodi:type="inkscape:persp3d" />
    <inkscape:perspective
       id="perspective4146-96"
       inkscape:persp3d-origin="12 : 8 : 1"
       inkscape:vp_z="24 : 12 : 1"
       inkscape:vp_y="0 : 1000 : 0"
       inkscape:vp_x="0 : 12 : 1"
       sodipodi:type="inkscape:persp3d" />
    <inkscape:perspective
       id="perspective4146-9-2"
       inkscape:persp3d-origin="12 : 8 : 1"
       inkscape:vp_z="24 : 12 : 1"
       inkscape:vp_y="0 : 1000 : 0"
       inkscape:vp_x="0 : 12 : 1"
       sodipodi:type="inkscape:persp3d" />
    <inkscape:perspective
       id="perspective4146-7"
       inkscape:persp3d-origin="12 : 8 : 1"
       inkscape:vp_z="24 : 12 : 1"
       inkscape:vp_y="0 : 1000 : 0"
       inkscape:vp_x="0 : 12 : 1"
       sodipodi:type="inkscape:persp3d" />
    <inkscape:perspective
       sodipodi:type="inkscape:persp3d"
       inkscape:vp_x="0 : 12 : 1"
       inkscape:vp_y="0 : 1000 : 0"
       inkscape:vp_z="24 : 12 : 1"
       inkscape:persp3d-origin="12 : 8 : 1"
       id="perspective4146-9-1-9" />
    <inkscape:perspective
       sodipodi:type="inkscape:persp3d"
       inkscape:vp_x="0 : 12 : 1"
       inkscape:vp_y="0 : 1000 : 0"
       inkscape:vp_z="24 : 12 : 1"
       inkscape:persp3d-origin="12 : 8 : 1"
       id="perspective4146-96-7" />
    <linearGradient
       id="linearGradient4066">
      <stop
         id="stop4068"
         style="stop-color:#dbc9ee;stop-opacity:1"
         offset="0" />
      <stop
         id="stop4070"
         style="stop-color:#faf7fd;stop-opacity:1"
         offset="1" />
    </linearGradient>
    <linearGradient
       id="linearGradient3843-5">
      <stop
         offset="0"
         style="stop-color:#5a2c8b;stop-opacity:1"
         id="stop3845-0" />
      <stop
         offset="1"
         style="stop-color:#9d59cf;stop-opacity:1"
         id="stop3847-4" />
    </linearGradient>
  </defs>
  <sodipodi:namedview
     id="base"
     pagecolor="#ffffff"
     bordercolor="#666666"
     borderopacity="1.0"
     inkscape:pageopacity="0.0"
     inkscape:pageshadow="2"
     inkscape:zoom="15.999999"
     inkscape:cx="-3.5938271"
     inkscape:cy="12.348223"
     inkscape:document-units="px"
     inkscape:current-layer="layer1"
     showgrid="true"
     fit-margin-top="0"
     fit-margin-left="0"
     fit-margin-right="0"
     fit-margin-bottom="0"
     inkscape:window-width="1366"
     inkscape:window-height="633"
     inkscape:window-x="0"
     inkscape:window-y="33"
     inkscape:window-maximized="1"
     inkscape:showpageshadow="false"
     inkscape:snap-bbox="true"
     inkscape:object-nodes="true"
     showguides="true"
     inkscape:guide-bbox="true">
    <inkscape:grid
       type="xygrid"
       id="grid4132" />
    <sodipodi:guide
       position="2,20.000017"
       orientation="18,0"
       id="guide4138" />
    <sodipodi:guide
       position="2,2.0000174"
       orientation="0,18"
       id="guide4140" />
    <sodipodi:guide
       position="20,2.0000174"
       orientation="-18,0"
       id="guide4142" />
    <sodipodi:guide
       position="20,20.000017"
       orientation="0,-18"
       id="guide4144" />
    <sodipodi:guide
       position="3,3.0000174"
       orientation="0,16"
       id="guide4148" />
    <sodipodi:guide
       position="19,3.0000174"
       orientation="-16,0"
       id="guide4150" />
    <sodipodi:guide
       position="19,19.000017"
       orientation="0,-16"
       id="guide4152" />
    <sodipodi:guide
       position="3,15"
       orientation="1,0"
       id="guide4484" />
  </sodipodi:namedview>
  <metadata
     id="metadata3874">
    <rdf:RDF>
      <cc:Work
         rdf:about="">
        <dc:format>image/svg+xml</dc:format>
        <dc:type
           rdf:resource="http://purl.org/dc/dcmitype/StillImage" />
        <dc:title />
      </cc:Work>
    </rdf:RDF>
  </metadata>
  <g
     inkscape:label="Capa 1"
     inkscape:groupmode="layer"
     id="layer1"
     transform="translate(-326,-534.3622)">
    <g
       id="g4170"
       style="fill:#ffffff;fill-opacity:1">
      <g
         inkscape:label="Capa 1"
         id="layer1-17"
         transform="translate(-1,1)"
         style="fill:#ffffff;fill-opacity:1">
        <g
           transform="translate(327,-497)"
           id="layer1-1"
           inkscape:label="Capa 1"
           style="fill:#ffffff;fill-opacity:1">
          <g
             inkscape:label="Capa 1"
             id="layer1-0"
             style="fill:#ffffff;fill-opacity:1">
            <path
               style="opacity:1;fill:#ffffff;fill-opacity:1;stroke:none"
               d="M 11 3 C 6.568 3 3 6.568 3 11 C 3 15.432 6.568 19 11 19 C 15.432 19 19 15.432 19 11 C 19 6.568 15.432 3 11 3 z M 15.345703 8.5 C 15.395172 8.5 15.448565 8.5034828 15.503906 8.5097656 L 15.505859 8.5097656 C 16.256528 8.5732373 16.78776 8.8280672 17.083984 9.2675781 C 17.413238 9.7560787 17.367339 10.352166 17.310547 10.664062 C 17.305428 10.692205 17.282076 10.713754 17.253906 10.71875 C 17.225627 10.723787 17.198076 10.71218 17.183594 10.6875 C 17.124653 10.586934 17.025552 10.434036 16.882812 10.28125 C 16.536531 9.9106313 16.105029 9.7148438 15.636719 9.7148438 C 15.597762 9.7148437 15.557452 9.7160808 15.517578 9.71875 L 15.517578 12.488281 C 15.517578 13.001639 15.132729 13.42319 14.601562 13.490234 C 14.553394 13.496298 14.505145 13.5 14.457031 13.5 C 13.944604 13.5 13.513075 13.152951 13.455078 12.693359 C 13.423828 12.445797 13.501618 12.199572 13.673828 12 C 13.846024 11.800428 14.092426 11.671391 14.367188 11.636719 C 14.524861 11.616803 14.68514 11.630925 14.833984 11.675781 L 14.833984 8.8515625 C 14.833984 8.6893449 14.967255 8.5 15.345703 8.5 z M 5.9394531 9 C 6.1529829 9 6.328125 9.173205 6.328125 9.3867188 L 6.328125 9.7753906 L 7.2265625 9.7753906 L 7.2265625 9.3867188 C 7.2265625 9.173205 7.3996394 9 7.6132812 9 C 7.826795 9 8.0019531 9.173205 8.0019531 9.3867188 L 8.0019531 9.7753906 L 8.390625 9.7753906 C 8.6041067 9.7753906 8.7773438 9.9504367 8.7773438 10.164062 C 8.7773437 10.377576 8.6040907 10.550781 8.390625 10.550781 L 8.0019531 10.550781 L 8.0019531 11.449219 L 8.390625 11.449219 C 8.6041708 11.449219 8.7773438 11.622456 8.7773438 11.835938 C 8.7773437 12.049419 8.6041868 12.224609 8.390625 12.224609 L 8.0019531 12.224609 L 8.0019531 12.613281 C 8.0019531 12.826923 7.826875 13 7.6132812 13 C 7.3997995 13 7.2265625 12.826923 7.2265625 12.613281 L 7.2265625 12.224609 L 6.328125 12.224609 L 6.328125 12.613281 C 6.328125 12.826923 6.1529829 13 5.9394531 13 C 5.7258433 13 5.5527344 12.826923 5.5527344 12.613281 L 5.5527344 12.224609 L 5.1640625 12.224609 C 4.9505328 12.224609 4.7773438 12.049419 4.7773438 11.835938 C 4.7773437 11.622456 4.9505328 11.449219 5.1640625 11.449219 L 5.5527344 11.449219 L 5.5527344 10.550781 L 5.1640625 10.550781 C 4.9505328 10.550781 4.7773438 10.377576 4.7773438 10.164062 C 4.7773437 9.9504527 4.9505328 9.7753906 5.1640625 9.7753906 L 5.5527344 9.7753906 L 5.5527344 9.3867188 C 5.5527344 9.173205 5.7258433 9 5.9394531 9 z M 11 10 C 11.553999 10 12 10.446001 12 11 C 12 11.553999 11.553999 12 11 12 C 10.446001 12 10 11.553999 10 11 C 10 10.446001 10.446001 10 11 10 z "
               transform="translate(0,1030.3622)"
               id="rect4119-9" />
          </g>
        </g>
        <g
           id="g3"
           transform="matrix(0.01368809,0,0,0.01368809,339.89972,541.8622)"
           style="fill:#ffffff;fill-opacity:1" />
      </g>
      <g
         style="fill:#ffffff;fill-opacity:1"
         inkscape:label="Capa 1"
         id="layer1-6"
         transform="matrix(0.25000001,0,0,0.25000001,248.27708,409.27164)">
        <g
           style="fill:#ffffff;fill-opacity:1"
           transform="matrix(1.00004,0,0,1.00004,-226.61766,-49.726823)"
           id="layer1-0-3"
           inkscape:label="Capa 1">
          <g
             transform="matrix(0.06404355,0,0,0.06404355,556.59508,586.06526)"
             style="fill:#ffffff;fill-opacity:1"
             id="g3-8">
            <path
               sodipodi:nodetypes="ccccc"
               inkscape:connector-curvature="0"
               style="fill:#ffffff;fill-opacity:1"
               id="path5-0"
               d="m 86.093,163.744 77.646,0 0,-77.657 -77.646,0 z" />
          </g>
        </g>
      </g>
    </g>
  </g>
</svg>

<svg xmlns="http://www.w3.org/2000/svg" viewBox="0 0 22 22"><g transform="translate(-326-534.36)" fill="#fff"><path d="m11 3c-4.432 0-8 3.568-8 8 0 4.432 3.568 8 8 8 4.432 0 8-3.568 8-8 0-4.432-3.568-8-8-8m4.346 5.5c.049 0 .103.003.158.001h.002c.751.063 1.282.318 1.578.758.329.489.283 1.085.227 1.396-.005.028-.028.05-.057.055-.028.005-.056-.007-.07-.031-.059-.101-.158-.253-.301-.406-.346-.371-.778-.566-1.246-.566-.039 0-.079.0001-.119.004v2.77c0 .513-.385.935-.916 1-.048.006-.096.001-.145.001-.512 0-.944-.347-1-.807-.031-.248.047-.494.219-.693.172-.2.419-.329.693-.363.158-.02.318-.006.467.039v-2.824c0-.162.133-.352.512-.352m-9.406.5c.214 0 .389.173.389.387v.389h.898v-.389c0-.214.173-.387.387-.387.214 0 .389.173.389.387v.389h.389c.213 0 .387.175.387.389 0 .214-.173.387-.387.387h-.389v.898h.389c.214 0 .387.173.387.387 0 .213-.173.389-.387.389h-.389v.389c0 .214-.175.387-.389.387-.213 0-.387-.173-.387-.387v-.389h-.898v.389c0 .214-.175.387-.389.387-.214 0-.387-.173-.387-.387v-.389h-.389c-.214 0-.387-.175-.387-.389 0-.213.173-.387.387-.387h.389v-.898h-.389c-.214 0-.387-.173-.387-.387 0-.214.173-.389.387-.389h.389v-.389c0-.214.173-.387.387-.387m5.061 1c.554 0 1 .446 1 1 0 .554-.446 1-1 1-.554 0-1-.446-1-1 0-.554.446-1 1-1" transform="translate(326 534.36)"/><path d="m86.09 163.74h77.65v-77.66h-77.65z" transform="matrix(.01601 0 0 .01601 330.77 543.36)"/></g></svg>
